packages/icons/raw/imported/TravelPassport.svg

<svg width="32" height="32" viewBox="0 0 32 32" fill="none" xmlns="http://www.w3.org/2000/svg">
<path d="M12.3077 22.5062H19.6923M20.9231 14.284C20.9231 16.9295 18.7189 19.0741 16 19.0741M20.9231 14.284C20.9231 11.6385 18.7189 9.49384 16 9.49384M20.9231 14.284H11.0769M16 19.0741C13.2811 19.0741 11.0769 16.9295 11.0769 14.284M16 19.0741C17.2235 19.0741 18.2153 16.9295 18.2153 14.284C18.2153 11.6385 17.2235 9.49384 16 9.49384M16 19.0741C14.7765 19.0741 13.7846 16.9295 13.7846 14.284C13.7846 11.6385 14.7765 9.49384 16 9.49384M11.0769 14.284C11.0769 11.6385 13.2811 9.49384 16 9.49384M10.4615 25.5H21.5385C22.8979 25.5 24 24.4277 24 23.1049V8.89507C24 7.57231 22.8979 6.5 21.5385 6.5H10.4615C9.10207 6.5 8 7.57231 8 8.89507V23.1049C8 24.4277 9.10207 25.5 10.4615 25.5Z" stroke="black" stroke-linecap="round"/>
</svg>

<svg width="32" height="32" fill="none" xmlns="http://www.w3.org/2000/svg"><path d="M12.308 22.506h7.384m1.231-8.222c0 2.646-2.204 4.79-4.923 4.79m4.923-4.79c0-2.646-2.204-4.79-4.923-4.79m4.923 4.79h-9.846M16 19.074c-2.719 0-4.923-2.145-4.923-4.79M16 19.074c1.224 0 2.215-2.145 2.215-4.79 0-2.646-.991-4.79-2.215-4.79m0 9.58c-1.223 0-2.215-2.145-2.215-4.79 0-2.646.992-4.79 2.215-4.79m-4.923 4.79c0-2.646 2.204-4.79 4.923-4.79M10.461 25.5h11.077c1.36 0 2.462-1.072 2.462-2.395V8.895C24 7.572 22.898 6.5 21.538 6.5H10.461C9.102 6.5 8 7.572 8 8.895v14.21c0 1.323 1.102 2.395 2.461 2.395Z" stroke="#000" stroke-linecap="round"/></svg>
